X:8
T:Trip to Slaidburn
C:Andy Hornby 1996
Q:1/4=180
I:abc2nwc
M:6/8
L:1/8
K:D
A|DFG AFA|Bcd AFA|Bcd AFA|Bcd e2A|
DFG AFA|Bcd A2d|Bcd edc|d3d2:|
|:g|fdf ecA|Bcd AFA|Bcd A2d|Bcd e2g|
fdf ecA|Bcd A2d|Bcd edc|d3d2:|
%%newpage
%%vskip 2cm
